X: 18
T:Auld Toun o'Ayr
M:4/4
L:1/8
R:Strathspey
K:D
F|"D"D<DF>A "D7"d3 c|"G"B/A/B/c/ d>B "D"A<F F<d|"D"D<DF>A "Bm"d3 f|"Em7"
(3efg (3gfe "A7" dd|!
"D"D<DF>A "D7"d3 c|"G"B/A/B/c/ d>B "D"A<F F<A|"G"B/A/B/c/ d>B "D"A<F F<d
|"Em7"A<F F<D"A7"~E2 E||!
F|"D"D>dF>d "D7" A<FF>A|"G"B/A/B/c/ d>B "D"A<F F<d|"D"D>dF>d "D7" A<FF>A
|"Em7"d>B A<F "A7"~E3 F|!
"D"D>dF>d "D7" A<FF>A|"G"B>A"A7"B>c "Bm"d3 f|"Em7"(3efg (3gfe "A7" d
d|"Em7"A<F F<D"A7"~E2 E||
